X:1
T:And though my love abounding - Wilbye
T:#
%%score 1 2 3 4
L:1/8
Q:1/4=120
M:4/4
K:Bb
V:1 treble nm="Soprano I"
V:2 treble nm="Soprano II"
V:3 treble nm="Alto" snm="A"
V:4 treble-8 nm="Tenor" snm="T"
V:1
"^And though my love abounding""^John Wilbye\n (1574-1638)"!mp!"^2nd part: 1st part is \"I fall, I fall\"" G8 | %1
w: And|
 B6 c2 | d4 e4 | d4 d4- | d4 z4 | z8 | d8 | d4 d4- |[M:4/4] d4 c4- | c2 B2 A4 | B8 | z8 | z8 | z8 | %14
w: though my|love a-|bound- ing,|||Did|make me|* fall|* a sound-|ing,||||
 z8 | G4 c4- | c4 B4 | A4 G4 | G4 ^F4 | z2!f! B2 B2 B2 | c4 c4 | d4 d2 d2 | c2 B2 A2 G2 | =F4 D4 | %24
w: |did make|* me|fall a|sound- ing,|Yet am I|well con-|tent- ed, yet|am I well con-|tent- ed,|
 z8 | z8 | z8 | z4!p! A4 | B3 B A2 G2 | (^F2 G4 F2) | G4 z4 | z8 | z4"^cresc." B4 | A2 G2 =F3 E | %34
w: |||still|so to be tor-|ment\- * *|ed,||yet|am I well con-|
 D4 D4 | z8 | A4 B4- | B2 B2 G4- | G4 A4- | A4 (G4- | G4 ^F4) | G8 | z4 c2 c2- | c2 B4 AG | B4 A4 | %45
w: tent- ed,||still so|* to be|* tor\-|* ment\-||ed,|still so|* to be tor-|ment- ed;|
 z8 | z4 d4- | d4 c2 B2 | A2 G2 A4 | G4 z4 | z4 A4 | A6 G2 | A2 =F2 =E4 | ^F4 z4 | z4 A4 | %55
w: |And|* death can|ne- ver fear|me|as|long as|you are near|me,|and|
 B3 B A2 G2 | (^F2 G4 F2) | G4 z2!f![Q:1/4=119] G2 | %58
w: death can ne- ver|fear * *|me as|
[Q:1/4=118] d3[Q:1/4=116] d[Q:1/4=116] c2[Q:1/4=114] B2 |[Q:1/4=112] A8 |[Q:1/4=105] =B16 |] %61
w: long as you are|near|me.|
V:2
 z8 |!mp! G8 | B6 c2 | d4 B4 | A4 G4 | ^F4 (G4- | G4 ^F4) | G8 |[M:4/4] z8 | d8 | d4 d4- | d4 c4- | %12
w: |And|though my|love a-|bound- ing,|a- bound\-||ing,||Did|make me|* fall|
 c2 B2 (B4- | B4 A4) | B8- | B4 (A2 G2) | ^F4 G4 | A4 B4 | A8 | G6!f! B2 | A2 G2 =F3 E | D4 D4 | %22
w: * a sound\-||ing,|* did *|make me|fall a|sound-|ing, Yet|am I well con-|tent- ed,|
 z8 | A4!p! B4- | B2 B2 G4- | G4 A4- | A4 G4- | G4 ^F4 | z2 d2 d2 c2 | d2 B2 A4 | G4 z4 | %31
w: |still so|* to be|* tor\-|* ment\-|* ed,|still so to|be tor- ment-|ed,|
 z4"^cresc." A4 | B4 B4 | c4 c4 | d4 d2 d2 | c2 B2 A2 G2 | =F4 D4 | z8 | z8 | z8 | d8 | B8 | e8 | %43
w: yet|am I|well con-|tent- ed, yet|am I well con-|tent- ed||||still|so|to|
 d4 d2 c2 | d8 | z8 | z4 A4 | B3 B A2 G2 | (^F2 G4 F2) | G4 z4 | z4 z2 =E2 | F3 F =E2 D2 | %52
w: be tor- ment-|ed;||And|death can ne- ver|fear * *|me|as|long as you are|
 (^C2 D4 C2) | D4 z4 | z4 d4- | d4 =c2 B2 | A2 G2 A2 A2 | z4 z2!f! G2 | B2 A3 A (G2- | %59
w: near * *|me,|and|* death can|ne- ver fear me|as|long as you are|
 G2 ^F=E) F4 | G16 |] %61
w: * * * near|me.|
V:3
 z8 | z8 | z8 |!mp! D8 | F4 G4 | A4 B4 | A8 | G4 B4 |[M:4/4] B4 (A2 G2) | ^F2 G2 (G2 F2) | G4 D4 | %11
w: |||And|though my|love a-|bound-|ing, Did|make me *|fall a sound\- *|ing, a|
 =F8 | F4 B,4 | E8- | E4 D4 | C6 B,2 | A,4 G,4 | ^F,4 G,4 | A,8 | B,4 z2!f! G,2 | A,2 B,2 B,2 A,2 | %21
w: sound-|ing, did|make|* me|fall, did|make me|fall a|sound-|ing, Yet|am I well con-|
 B,8 | G,4 E4 |!p! D8- | D4 C4- | C4 C4 | (^F,4 G,4) | B,4 A,4 | z8 | z4 A,4 | B,3 B, A,2 G,2 | %31
w: tent-|ed still|so|* to|* be|tor\- *|ment- ed,||still|so to be tor-|
 (^F,2 G,4 F,2) | G,8 | z8 |"^cresc." F8 | E2 D2 C2 B,2 | A,2 F,2 F4 | G8 | E8 | D2 D4 C2 | D4 D4 | %41
w: ment\- * *|ed,||yet|am I well con-|tent- ed still|so|to|be tor- ment-|ed, still|
 D4 E4- | E4 C4 | D4 E4 | D6 D2 | B,3 B, A,2 G,2 | (^F,2 G,4 F,2) | G,4 z4 | z4 A,4 | B,3 C D2 D2 | %50
w: so to|* be|con- tent-|ed; And|death can ne- ver|fear * *|me|as|long as you are|
 ^C2 D4 C2 | D3 D A,2 B,2 | A,4 A,4- | A,2 A,2 B,3 B, | A,2 G,2 ^F,4 | G,2 B,2 =F,2 G,2 | %56
w: near me, as|long as you are|near me,|* and death can|ne- ver fear~~|me, and death can|
 D2 E2 D4 | D6!f! C2 | D2 A,2 ^F,2 G,2 | A,8 | G,16 |] %61
w: ne- ver fear|me as|long as you are|near|me.|
V:4
 z8 | z8 |!mp! G8 | B6 c2 | d4 e4 | d8 | d4 d4 | B6 c2 |[M:4/4][K:treble-8] d4 e4 | d8 | d4 B4 | %11
w: ||And|though my|love a-|bound-|ing, and|though my|love a-|bound-|ing, Did|
 A6 G2 | F4 G4 | G4 c4 | F4 f4- | f4 e4 | d8- | d4 d4 | d8 | d8 | z8 |!f! f8 | e2 d2 c2 B2 | %23
w: make me|fall a|sound- ing,|did make|* me|fall|* a|sound-|ing,||Yet|am I well con-|
 A2 F2!p! f4 | g8 | e8 | d2 d4 c2 | d6 d2 | g3 g f2 e2 | d4 d4 | z2 d2 d2 c2 | d2 B2 A4 | %32
w: tent- ed still|so|to|be tor- ment-|ed, still|so to be tor-|ment- ed,|still so to|be tor- ment-|
 G4"^cresc." d4 | A2 B2 B2 A2 | B8 | G4 e4 | d8- | d4 c4- | c4 c4 | (^F4 G4) | B4 A4 | G4 g4- | %42
w: ed, yet|I am well con-|tent-|ed still|so|* to|* be|tor\- *|ment- ed,|still so|
 g4 a4- | a2 g2 g4- | g4 ^f4 | g2 d2 d2 c2 | d2 B2 A4 | G2 B2 F2 G2 | d2 e2 d4 | d2 g2 =f2 g2 | %50
w: * to|* be tor\-|* ment-|ed; And death can|ne- ver fear|me, and death can|ne- ver fear|me as you are|
 (=e2 d2 e4) | d4 z4 | z8 | z2 d2 d2 d2 | d2 c2 d4 | d4 z4 | z4!f! A4 | B3 B A2 G2 | F3 G A2 (Bc) | %59
w: near * *|me,||and death can|ne- ver fear||as|long as you, as|long as you are *|
 d8 | d16 |] %61
w: near|me.|

